X: 3
T: The Friendly Visit
R: hornpipe
M: 4/4
L: 1/8
K: Gmaj
|a2 ec Acea | f2 dB F3 f | g2 fe ^defa | gef^d e=dcB |(3ABA EA cAce | dcBc defg |aecA EGBd | c2 A2 A2 :|


Tune 32	Setting 12426

